X:168
T:Frehan's #2
R:jig
S:Mick Hand
H:Similar to "Scatter the Mud", #112
Z:id:hn-jig-168
M:6/8
K:Ador
eAA BAG|EAA ABd|eAA BAB|GEG GBd|eAA BAG|EAA AGE|GAB d2e|dBA ABd:|
eaa (3gag e|dBG GBd|eag ege|dBG A2d|eaa g2e|dBG AGE|GAB d2e|dBA ABd|
eaa g2e|dBG GBd|ega g2a|bag a3|bab g2e|dBG AGE|GAB dge|dBA ABd||

